X:0551
T:Major Graham.
C:N.G.
M:C
L:1/8
Q:1/4=80 "Very Slow"
I: :| ||
Z:Jack Campin * www.campin.me.uk * 2009
K:G
 G        |D>EGG  G2({G}g>)e|dBAG [D2A2] [AD]B|D>EGG  G2{G}g>e|dBTAB  G2G:|
(d/e//f//)|g>agf Te>deg   |d>BAG A2     ef  |g>agf   Tedeg    |d<BA>B G2G
 e/f/|     g>agf Te>deg   |dBAG  A2     AB  |D>EGG    G2{G}g>e|dBA>B  G2G|]
<end>
<start>
